svgs/materials/action/no_accounts.svg

<svg xmlns="http://www.w3.org/2000/svg" enable-background="new 0 0 24 24" height="24" viewBox="0 0 24 24" width="24"><g><rect fill="none" height="24" width="24"/></g><g><g><path d="M15.18,10.94c0.2-0.44,0.32-0.92,0.32-1.44C15.5,7.57,13.93,6,12,6c-0.52,0-1,0.12-1.44,0.32L15.18,10.94z"/><path d="M12,2C6.48,2,2,6.48,2,12s4.48,10,10,10s10-4.48,10-10S17.52,2,12,2z M12,15c-2.32,0-4.45,0.8-6.14,2.12 C4.7,15.73,4,13.95,4,12c0-1.85,0.63-3.55,1.69-4.9l2.86,2.86c0.21,1.56,1.43,2.79,2.99,2.99l2.2,2.2C13.17,15.05,12.59,15,12,15z M18.31,16.9L7.1,5.69C8.45,4.63,10.15,4,12,4c4.42,0,8,3.58,8,8C20,13.85,19.37,15.54,18.31,16.9z"/></g></g></svg>

<?xml version="1.0" encoding="UTF-8" standalone="no"?>
<svg
   enable-background="new 0 0 24 24"
   height="24"
   viewBox="0 0 24 24"
   width="24"
   version="1.1"
   id="svg14"
   sodipodi:docname="no_accounts.svg"
   inkscape:version="1.2 (dc2aeda, 2022-05-15)"
   xmlns:inkscape="http://www.inkscape.org/namespaces/inkscape"
   xmlns:sodipodi="http://sodipodi.sourceforge.net/DTD/sodipodi-0.dtd"
   xmlns="http://www.w3.org/2000/svg"
   xmlns:svg="http://www.w3.org/2000/svg">
  <defs
     id="defs18" />
  <sodipodi:namedview
     id="namedview16"
     pagecolor="#ffffff"
     bordercolor="#000000"
     borderopacity="0.25"
     inkscape:showpageshadow="2"
     inkscape:pageopacity="0.0"
     inkscape:pagecheckerboard="0"
     inkscape:deskcolor="#d1d1d1"
     showgrid="false"
     inkscape:zoom="9.8333333"
     inkscape:cx="12.050847"
     inkscape:cy="12"
     inkscape:window-width="1309"
     inkscape:window-height="456"
     inkscape:window-x="0"
     inkscape:window-y="25"
     inkscape:window-maximized="0"
     inkscape:current-layer="svg14" />
  <path
     id="rect2"
     style="fill:none"
     d="M 0,0 H 24 V 24 H 0 Z" />
  <path
     d="M 15.18,10.94 C 15.38,10.5 15.5,10.02 15.5,9.5 15.5,7.57 13.93,6 12,6 11.48,6 11,6.12 10.56,6.32 Z"
     id="path6" />
  <path
     d="M 12,2 C 6.48,2 2,6.48 2,12 2,17.52 6.48,22 12,22 17.52,22 22,17.52 22,12 22,6.48 17.52,2 12,2 Z m 0,13 C 9.68,15 7.55,15.8 5.86,17.12 4.7,15.73 4,13.95 4,12 4,10.15 4.63,8.45 5.69,7.1 l 2.86,2.86 c 0.21,1.56 1.43,2.79 2.99,2.99 l 2.2,2.2 C 13.17,15.05 12.59,15 12,15 Z M 18.31,16.9 7.1,5.69 C 8.45,4.63 10.15,4 12,4 c 4.42,0 8,3.58 8,8 0,1.85 -0.63,3.54 -1.69,4.9 z"
     id="path8" />
</svg>
